static/assets/img/icons/theme/communication/mail-unocked.svg

<svg height="24" viewBox="0 0 24 24" width="24" xmlns="http://www.w3.org/2000/svg"><g fill="none" fill-rule="evenodd"><path d="m0 0h24v24h-24z" opacity="0"/><g fill="#000"><path d="m3 17v-1c0-.5522847-.44771525-1-1-1s-1 .4477153-1 1h-1c0-1.1045695.8954305-2 2-2s2 .8954305 2 2v1h4c.55228475 0 1 .4477153 1 1v3c0 .5522847-.44771525 1-1 1h-5c-.55228475 0-1-.4477153-1-1v-3c0-.5522847.44771525-1 1-1z" opacity=".3"/><path d="m12.9835977 18c-.257293-3.9090159-3.50947635-7-7.4835977-7-.51369876 0-1.01533509.0516454-1.5.1500272v-4.1500272c0-1.1045695.8954305-2 2-2h14c1.1045695 0 2 .8954305 2 2v9c0 1.1045695-.8954305 2-2 2zm6.1608274-11.16035332-6.1444251 3.30853662-6.14442513-3.30853662c-.36470307-.19637858-.81954962-.05992462-1.01592819.30477845-.19637858.36470307-.05992462.81954962.30477845 1.01592819l6.49999997 3.49999998c.2219823.1195289.4891675.1195289.7111498 0l6.5-3.49999998c.364703-.19637857.501157-.65122512.3047784-1.01592819s-.6512251-.50115703-1.0159282-.30477845z"/></g></g></svg>

<svg width="24px" height="24px" viewBox="0 0 24 24" version="1.1" xmlns="http://www.w3.org/2000/svg" xmlns:xlink="http://www.w3.org/1999/xlink">
    <title>Icon For Mail-unocked</title>
    <g stroke="none" stroke-width="1" fill="none" fill-rule="evenodd">
        <rect opacity="0" x="0" y="0" width="24" height="24"></rect>
        <path d="M3,17 L3,16 C3,15.4477153 2.55228475,15 2,15 C1.44771525,15 1,15.4477153 1,16 L0,16 C-1.48029737e-16,14.8954305 0.8954305,14 2,14 C3.1045695,14 4,14.8954305 4,16 L4,17 L8,17 C8.55228475,17 9,17.4477153 9,18 L9,21 C9,21.5522847 8.55228475,22 8,22 L3,22 C2.44771525,22 2,21.5522847 2,21 L2,18 C2,17.4477153 2.44771525,17 3,17 Z" fill="#000000" opacity="0.3"></path>
        <path d="M12.9835977,18 C12.7263047,14.0909841 9.47412135,11 5.5,11 C4.98630124,11 4.48466491,11.0516454 4,11.1500272 L4,7 C4,5.8954305 4.8954305,5 6,5 L20,5 C21.1045695,5 22,5.8954305 22,7 L22,16 C22,17.1045695 21.1045695,18 20,18 L12.9835977,18 Z M19.1444251,6.83964668 L13,10.1481833 L6.85557487,6.83964668 C6.4908718,6.6432681 6.03602525,6.77972206 5.83964668,7.14442513 C5.6432681,7.5091282 5.77972206,7.96397475 6.14442513,8.16035332 L12.6444251,11.6603533 C12.8664074,11.7798822 13.1335926,11.7798822 13.3555749,11.6603533 L19.8555749,8.16035332 C20.2202779,7.96397475 20.3567319,7.5091282 20.1603533,7.14442513 C19.9639747,6.77972206 19.5091282,6.6432681 19.1444251,6.83964668 Z" fill="#000000"></path>
    </g>
</svg>
